azure-patterns/svg-migration.svg

<svg xmlns="http://www.w3.org/2000/svg" viewBox="0 0 48 48">
                                
                            
  <path d="M0 0H10.1053V10.1053L0 0Z" fill="#0078D4"></path>
  <path d="M12.6316 0H22.7369V10.1053L12.6316 0Z" fill="#50E6FF"></path>
  <path d="M25.2632 0H35.3684V10.1053L25.2632 0Z" fill="#50E6FF"></path>
  <path d="M37.8948 0H48.0001V10.1053L37.8948 0Z" fill="#50E6FF"></path>
  <path d="M0 12.6313H10.1053V22.7366L0 12.6313Z" fill="#0078D4"></path>
  <path d="M12.6316 12.6313H22.7369V22.7366L12.6316 12.6313Z" fill="#0078D4"></path>
  <path d="M25.2632 12.6313H35.3684V22.7366L25.2632 12.6313Z" fill="#50E6FF"></path>
  <path d="M37.8948 12.6313H48.0001V22.7366L37.8948 12.6313Z" fill="#50E6FF"></path>
  <path d="M0 25.2632H10.1053V35.3684L0 25.2632Z" fill="#0078D4"></path>
  <path d="M12.6316 25.2632H22.7369V35.3684L12.6316 25.2632Z" fill="#0078D4"></path>
  <path d="M25.2632 25.2632H35.3684V35.3684L25.2632 25.2632Z" fill="#0078D4"></path>
  <path d="M37.8948 25.2632H48.0001V35.3684L37.8948 25.2632Z" fill="#50E6FF"></path>
  <path d="M0 37.8945H10.1053V47.9998L0 37.8945Z" fill="#0078D4"></path>
  <path d="M12.6316 37.8945H22.7369V47.9998L12.6316 37.8945Z" fill="#0078D4"></path>
  <path d="M25.2632 37.8945H35.3684V47.9998L25.2632 37.8945Z" fill="#0078D4"></path>
  <path d="M37.8948 37.8945H48.0001V47.9998L37.8948 37.8945Z" fill="#0078D4"></path>
</svg>

<svg xmlns="http://www.w3.org/2000/svg" viewBox="0 0 48 48"><path d="M0 0h10.105v10.105L0 0z" fill="#0078D4"/><path d="M12.632 0h10.105v10.105L12.632 0zM25.263 0h10.105v10.105L25.263 0zM37.895 0H48v10.105L37.895 0z" fill="#50E6FF"/><path d="M0 12.631h10.105v10.106L0 12.63zM12.632 12.631h10.105v10.106L12.632 12.63z" fill="#0078D4"/><path d="M25.263 12.631h10.105v10.106L25.263 12.63zM37.895 12.631H48v10.106L37.895 12.63z" fill="#50E6FF"/><path d="M0 25.263h10.105v10.105L0 25.263zM12.632 25.263h10.105v10.105L12.632 25.263zM25.263 25.263h10.105v10.105L25.263 25.263z" fill="#0078D4"/><path d="M37.895 25.263H48v10.105L37.895 25.263z" fill="#50E6FF"/><path d="M0 37.895h10.105V48L0 37.895zM12.632 37.895h10.105V48L12.632 37.895zM25.263 37.895h10.105V48L25.263 37.895zM37.895 37.895H48V48L37.895 37.895z" fill="#0078D4"/></svg>
